!!!!SEGMENT: pl-sa--231-a-vi-35--002_anonim--litania-kyrie.krn
!!!cenid: 17xx:1397
!!!COM: Anonim
!!!COM-rismID: pe30004985
!!!CDT:
!!!CNT:
!!!OPR: Litania
!!!OTL: Kyrie
!!!OMV: 002
!!!PDT:
!!!AGN: Sacred; Mass
!!!SMS-siglum: PL-SA
!!!SMS-shelfmark: 231/A VI 35
!!!SMS-shelfwork: 001-002 M
!!!SMS-variant:
!!!SMS-altvar:
!!!NIFC-rismSourceID: 1001039070
!!!NIFC-rismChildID: 1001039070
!!!NIFC-islandoraID: none
!!!URL-pdf-islandora:
!!!URL-scan: https://bc.bdsandomierz.pl/dlibra/publication/1585/edition/1553/content @EN{Scan in the Sandomierz Diocese Digital Library} @PL{Skany w portalu Cyfrowa Biblioteka Diecezjalna w Sandomierzu}
!!!ONB-nifc: UWAGA: części Litanii: 1. Sinfonia, 2. Kyrie, 3. Pater de caelis, 4. Sancta Maria, 5. Mater amabilis, 6. Speculum iustitiae, 7. Rosa mystica, 8. Salus infirmorum, 9. Regina angelorum, 10. Agnus Dei. Uwaga: wpisać oba teksty.
!!!AIN: 6 empty 1 tenor 1 violn 1 vox
!!!key:
**kern	**dynam	**kern	**dynam	**kern	**dynam	**kern	**text	**kern	**text	**kern	**text	**kern	**kern	**kern
*part9	*part9	*part8	*part8	*part7	*part7	*part6	*part6	*part5	*part5	*part4	*part4	*part3	*part2	*part1
*staff9	*	*staff8	*	*staff7	*	*staff6	*staff6	*staff5	*staff5	*staff4	*staff4	*staff3	*staff2	*staff1
*Iempty	*	*Iempty	*	*Ivioln	*	*Iempty	*	*Itenor	*	*Ivox	*	*Iempty	*Iempty	*Iempty
*I"Fondamento.	*	*I"Violino ſecudno	*	*I"Violino Primo	*	*I"Baſso.	*	*I"Tenore	*	*I"Canto.	*	*I"Cornu ſecundo. in G.	*I"Cornu Primo ex G	*I"Oboa Prima.
*I'BC	*	*I'vl 2	*	*I'vl 1	*	*I'B	*	*I'T	*	*I'S	*	*I'cor 2 in G	*I'cor 1 in G	*I'ob
*ICstr	*	*ICstr	*	*ICstr	*	*ICvox	*	*ICvox	*	*ICvox	*	*ICbras	*ICbras	*ICww
*clefF4	*	*clefG2	*	*clefG2	*	*clefF4	*	*clefC4	*	*clefC1	*	*clefG2	*clefG2	*clefG2
*	*	*	*	*	*	*	*	*	*	*	*	*ITrd3c5	*ITrd3c5	*
*k[f#]	*	*k[f#]	*	*k[f#]	*	*k[f#]	*	*k[f#]	*	*k[f#]	*	*k[f#]	*k[f#]	*k[f#]
*G:	*	*G:	*	*G:	*	*G:	*	*G:	*	*G:	*	*G:	*G:	*G:
*M4/4	*	*M4/4	*	*M4/4	*	*M4/4	*	*M4/4	*	*M4/4	*	*M4/4	*M4/4	*M4/4
*met(c)	*	*met(c)	*	*met(c)	*	*met(c)	*	*met(c)	*	*met(c)	*	*met(c)	*met(c)	*met(c)
=1	=1	=1	=1	=1	=1	=1	=1	=1	=1	=1	=1	=1	=1	=1
!LO:TX:a:B:t=adagio	!	!LO:TX:a:rj:B:t=adagio	!	!LO:TX:a:B:t=adagio	!	!LO:TX:a:B:t=adagio	!	!	!	!LO:TX:a:rj:B:t=adagio	!	!LO:TX:a:B:t=adagio	!LO:TX:a:B:t=adagio	!LO:TX:a:rj:B:t=adagio
!LO:TX:b:t=Kyrie.	!	!	!	!	!	!	!	!	!	!	!	!	!	!
!LO:TX:a:rj:i:t=Tutti	!	!	!	!	!	!	!	!	!	!	!	!	!	!LO:TX:b:t=Kyrie
!.	!	!LO:TX:b:t=Kyrie	!	!LO:TX:b:rj:t=Kyrie	!	!.	!	!	!	!	!	!LO:TX:b:t=Kyrie.	!LO:TX:b:t=Kyrie.	!
4.G\	.	4.gg/ 4.b/ 4.d/ 4.G/	.	4.gg/ 4.b/ 4.d/ 4.G/	.	4.G\	Ky-	4.d\	Ky-	4.b\	Ky-	4.g\	4.b\	4.gg\
8G\	.	8gg/ 8b/ 8d/ 8G/	.	8gg/ 8b/ 8d/ 8G/	.	8G\	-ri-	8d\	-ri-	8b\	-ri-	8g\	8b\	8gg\
4G\	.	4gg/ 4b/ 4d/ 4G/	.	4gg/ 4b/ 4d/ 4G/	.	4G\	-e	4d\	-e	4b\	-e	4g\	4b\	4gg\
4r	.	4r	.	4r	.	4G\	e-	4r	.	4r	.	4r	4r	4r
=2	=2	=2	=2	=2	=2	=2	=2	=2	=2	=2	=2	=2	=2	=2
2r	.	2r	.	2r	.	8G\L	-lei-	2r	.	2r	.	2r	2r	2r
.	.	.	.	.	.	8A\	.	.	.	.	.	.	.	.
.	.	.	.	.	.	8B\	.	.	.	.	.	.	.	.
.	.	.	.	.	.	8c\J	.	.	.	.	.	.	.	.
4r	.	4r	.	4r	.	4d\	son	4r	.	4r	.	4r	4r	4r
4G\	.	4dd\	.	4bb\	.	4G\	e-	4d\	e-	4ffn\	e-	4g\	4g\	4bb\
=3	=3	=3	=3	=3	=3	=3	=3	=3	=3	=3	=3	=3	=3	=3
*	*	*	*	*	*	*	*	*2\right	*	*2\right	*	*	*	*
!	!	!	!	!	!	!	!	!	!	!LO:SIC:v:s=2ffn	!	!	!	!
4G\	.	4dd\	.	4bb\	.	4G\	-lei-	2d\	-lei-	2ff#\	-lei-	4g\	4g\	4bb\
4GG/	.	4dd\	.	4bb\	.	4GG/	-i-	.	.	.	.	4g\	4g\	4bb\
4C/	.	4ee\	.	4ccc\	.	4C/	-son	4c\	-ſon	4ee\	-son	4g\	4g\	4ccc\
4r	.	4r	.	4r	.	4A\	e-	4r	.	4r	.	4r	4r	4r
=4	=4	=4	=4	=4	=4	=4	=4	=4	=4	=4	=4	=4	=4	=4
2r	.	2r	.	2r	.	8A\L	-lei-	2r	.	2r	.	2r	2r	2r
.	.	.	.	.	.	8B\	.	.	.	.	.	.	.	.
.	.	.	.	.	.	8c#X\	.	.	.	.	.	.	.	.
.	.	.	.	.	.	8d\J	.	.	.	.	.	.	.	.
4r	.	4r	.	4r	.	4e\	-ſon	4r	.	4r	.	4r	4r	4r
4A\	.	4ee\	.	4ccc#X\	.	4A\	e-	4e\	e-	4gg\	e-	4a\	4a\	4gg\
=5	=5	=5	=5	=5	=5	=5	=5	=5	=5	=5	=5	=5	=5	=5
!	!	!	!	!LO:SIC:v:s=4ccc#	!	!	!	!	!	!	!	!	!	!
4A\	.	4ee\	.	4ccc\	.	4A\	-le-	2e\	-lei-	2gg\	-lei-	4a\	4a\	4gg\
!	!	!	!	!LO:SIC:v:s=4ccc#	!	!	!	!	!	!	!	!	!	!
4AA/	.	4ee\	.	4ccc\	.	4AA/	-i-	.	.	.	.	4a\	4a\	4gg\
4D\	.	4ff#\	.	4ddd\	.	4D\	-son	4d\	-ſon	4ff#X\	-son	4d/	4a\	4ff#\
!	!	!	!LO:DY:a	!	!LO:DY:a	!	!	!LO:TX:a:i:t=Solo	!	!LO:TX:a:i:t=Solo	!	!	!	!
4r	.	(8a/L	p	8ff#\L	p	4r	.	8F#/	Chriſ-	8a\	Chris-	4r	4r	4r
.	.	8b/J)	.	8gg\J	.	.	.	8G/	-te	8b\	-te	.	.	.
=6	=6	=6	=6	=6	=6	=6	=6	=6	=6	=6	=6	=6	=6	=6
!LO:TX:a:rj:i:t=ſolo	!	!	!	!	!	!	!	!	!	!	!	!	!	!
[1D\	.	(8cc\L	.	(8aa\L	.	1r	.	8A/L	Chriſ-	(8cc\L	Chris-	1r	1r	1r
.	.	8b\)	.	8gg\)	.	.	.	8G/	.	8b\J)	.	.	.	.
.	.	(8b\	.	(8gg\	.	.	.	8G/	.	(8b\L	.	.	.	.
.	.	8a\J)	.	8ff#\J)	.	.	.	8F#/J	.	8a\J)	.	.	.	.
.	.	4a/	.	4ff#\	.	.	.	4F#/	-te	4a\	-te	.	.	.
.	.	(8a/L	.	(8ff#\L	.	.	.	8A/L	e-	(8ff#\L	e-	.	.	.
.	.	8b/J)	.	8gg\J)	.	.	.	8B/J	.	8gg\J)	.	.	.	.
!	!	!	!	!	!	!	!	!LO:LB:g=original	!	!	!	!	!	!
=7	=7	=7	=7	=7	=7	=7	=7	=7	=7	=7	=7	=7	=7	=7
2D\]	.	(8a/L	.	(8ccn\L	.	2r	.	(8A/L	-le-	(8cc\L	-le-	2r	2r	2r
.	.	8g/)	.	8b\)	.	.	.	8G/)	.	8b\)	.	.	.	.
.	.	(8g/	.	(8b\	.	.	.	(8G/	-i-	(8b\	-i-	.	.	.
.	.	8f#/J)	.	8a\J)	.	.	.	8F#/J)	.	8a\J)	.	.	.	.
4D\	.	4f#/	.	4a\	.	4r	.	4F#/	-ſon	4a\	-son	4r	4r	4r
!LO:TX:a:t=Tutti	!	!	!LO:DY:a:t=for&colon;	!	!LO:DY:a	!	!	!	!	!LO:TX:a:i:t=Tutti	!	!	!	!
4D\	.	4f#/	f	4cc\	f	4D\	e-	4F#/	E-	4cc\	e-	4a\	4cc\	4cc\
=8	=8	=8	=8	=8	=8	=8	=8	=8	=8	=8	=8	=8	=8	=8
*	*	*	*	*2\right	*	*	*	*	*	*	*	*2\right	*2\right	*2\right
4E\	.	4g/	.	2cc\	.	4E\	-le-	4G/	-le-	2cc\	-lei-	2a\	2cc\	2cc\
4F#\	.	4a/	.	.	.	4F#\	-i-	4A/	-i-	.	.	.	.	.
4G\	.	4d/	.	4b\	.	4G\	-ſon	4G/	-ſon	4b\	-son	4g\	4b\	4b\
4G\	.	4b\	.	4ffn\	.	4G\	e	4B\	e-	4ffn\	e-	4g\	4g\	4ffn\
!	!	!	!	!	!	!	!	!	!	!LO:LB:g=original	!	!	!	!
=9	=9	=9	=9	=9	=9	=9	=9	=9	=9	=9	=9	=9	=9	=9
!	!	!	!	!LO:SIC:v:s=2ffn	!	!	!	!	!	!	!	!	!	!LO:SIC:v:s=2ffn
4A\	.	4cc\	.	2ff#\	.	4A\	le-	4c\	-le-	2ffn\	-lei-	4g\	4g\	2ff#\
4B\	.	4dd\	.	.	.	4B\	-i-	4d\	-i-	.	.	8g\L	8g\L	.
.	.	.	.	.	.	.	.	.	.	.	.	8g\J	8g\J	.
!	!	!	!	!	!	!LO:LB:g=original	!	!	!	!	!	!	!	!
4c\	.	4g/	.	4ee\	.	4c\	-ſon	4G/	-ſon	4ee\	-son	4g\	4g\	4ee\
4A\	.	4cc#X\	.	4gg\	.	4A\	e-	4c#X\	e-	4gg\	e-	4a\	4a\	4gg\
!LO:LB:g=original	!	!	!	!LO:LB:g=original	!	!	!	!	!	!	!	!	!	!
=10	=10	=10	=10	=10	=10	=10	=10	=10	=10	=10	=10	=10	=10	=10
4B\	.	4dd\	.	2gg\	.	4B\	-le-	4d\	-le-	2gg\	-lei-	4a\	4a\	2gg\
4c#X\	.	4ee\	.	.	.	4c#X\	-i-	4e\	-i-	.	.	8a\L	8a\L	.
.	.	.	.	.	.	.	.	.	.	.	.	8a\J	8a\J	.
4d\	.	4a\	.	4ff#X\	.	4d\	-ſon	4A\	-ſon	4ff#X\	-son	4d/	4a\	4ff#X\
4D\	.	4ccn\	.	4aa\	.	4D\	e-	4cn\	e-	4aa\	e-	4a\	4cc\	4aa\
!	!	!LO:LB:g=original	!	!	!	!	!	!	!	!	!	!	!	!
=11	=11	=11	=11	=11	=11	=11	=11	=11	=11	=11	=11	=11	=11	=11
4E\	.	2a/	.	2ccn\	.	4E\	-le-	2A\	-lei-	2ccn\	-lei-	2a\	2cc\	2cc\
4F#\	.	.	.	.	.	4F#\	-i	.	.	.	.	.	.	.
!	!	!	!	!	!	!	!	!	!	!	!	!	!	!LO:LB:g=original
4G\	.	4d/	.	4b\	.	4G\	ſon	4G/	-ſon	4b\	-son	4g\	4b\	4b\
4B\	.	4b/	.	4gg\	.	4B\	e-	4G/	e-	4b\	e-	4g\	4b\	4gg\
!	!	!	!	!	!	!	!	!	!	!	!	!LO:LB:g=original	!LO:LB:g=original	!
=12	=12	=12	=12	=12	=12	=12	=12	=12	=12	=12	=12	=12	=12	=12
4d\	.	4f#/	.	4a\	.	4d\	-le-	2F#/	-lei-	2a\	-lei-	4d/	4a\	4a\
4D\	.	4a/	.	4ff#\	.	4D\	-i-	.	.	.	.	4d/	4a\	4ff#\
4G\	.	4b/	.	4gg\	.	4G\	-ſon	4G/	-ſon	4b\	-son	4g\	4b\	4gg\
4G\	.	4d/	.	4b\	.	4G\	e-	4G/	e-	4b\	e-	4g\	4b\	4b\
!	!	!	!	!	!	!	!	!LO:LB:g=original	!	!	!	!	!	!
=13	=13	=13	=13	=13	=13	=13	=13	=13	=13	=13	=13	=13	=13	=13
4d\	.	4f#/	.	4a\	.	4d\	-le-	2F#/	-lei-	2a\	-lei-	4d/	4a\	4a\
4D\	.	4a/	.	4ff#\	.	4D\	-i-	.	.	.	.	4d/	4a\	4ff#\
*2\right	*	*	*	*	*	*2\right	*	*	*	*	*	*	*	*
2G;\	.	2b;/	.	2gg;\	.	2G;\	-son	2G;/	-son	2b;\	-son	2g;\	2b;\	2gg;\
=14	=14	=14	=14	=14	=14	=14	=14	=14	=14	=14	=14	=14	=14	=14
!	!	!	!	!	!	!	!	!	!	!	!	!	!	!LO:TX:a:B:t=Allo
!LO:TX:a:rj:B:t=Allo	!	!LO:TX:a:B:t=Allo&colon;	!	!LO:TX:a:rj:B:t=allo&colon;	!	!LO:TX:a:rj:B:t=Allo	!	!LO:TX:a:B:t=Allo&colon;	!	!LO:TX:a:rj:B:t=Allo	!	!LO:TX:a:rj:B:t=Allo	!LO:TX:a:B:t=Allo	!
8G\L	.	4gg/ 4b/ 4d/ 4G/	.	4gg/ 4b/ 4d/ 4G/	.	2G\	Chris-	2G/	Chriſ-	2b\	Chris-	4g\	4b\	4gg\
16G\L	.	.	.	.	.	.	.	.	.	.	.	.	.	.
16A\JJ	.	.	.	.	.	.	.	.	.	.	.	.	.	.
8B\L	.	4r	.	4r	.	.	.	.	.	.	.	4r	4r	4r
16A\L	.	.	.	.	.	.	.	.	.	.	.	.	.	.
16G\JJ	.	.	.	.	.	.	.	.	.	.	.	.	.	.
8d\L	.	4ff#/ 4a/ 4d/	.	4ff#/ 4a/ 4d/	.	2d\	-te	2F#/	-te	2a\	-te	4d/	4a\	4ff#\
16D\L	.	.	.	.	.	.	.	.	.	.	.	.	.	.
16E\JJ	.	.	.	.	.	.	.	.	.	.	.	.	.	.
8F#\L	.	4r	.	4r	.	.	.	.	.	.	.	4r	4r	4r
16E\L	.	.	.	.	.	.	.	.	.	.	.	.	.	.
16D\JJ	.	.	.	.	.	.	.	.	.	.	.	.	.	.
=15	=15	=15	=15	=15	=15	=15	=15	=15	=15	=15	=15	=15	=15	=15
8G\L	.	4gg/ 4b/ 4d/ 4G/	.	4gg/ 4b/ 4d/ 4G/	.	4G\	au-	4.G/	au-	4.b\	au-	4g\	4b\	4gg\
16G\L	.	.	.	.	.	.	.	.	.	.	.	.	.	.
16A\JJ	.	.	.	.	.	.	.	.	.	.	.	.	.	.
8B\L	.	4r	.	4r	.	8B\	.	.	.	.	.	4r	4r	4r
16A\L	.	.	.	.	.	8G\	-di	8G/	-di	8b\	-di	.	.	.
16G\JJ	.	.	.	.	.	.	.	.	.	.	.	.	.	.
8d\L	.	4ff#/ 4a/ 4d/	.	4ff#/ 4a/ 4d/	.	4d\	nos	2F#/	nos	4a\	nos	8d/L	8a\L	4ff#\
16D\L	.	.	.	.	.	.	.	.	.	.	.	16d/L	16a\L	.
16D\JJ	.	.	.	.	.	.	.	.	.	.	.	16d/JJ	16a\JJ	.
4D\	.	4r	.	4r	.	4r	.	.	.	4r	.	4d/	4a\	4r
=16	=16	=16	=16	=16	=16	=16	=16	=16	=16	=16	=16	=16	=16	=16
8G\L	.	(16g/LL	.	(16b\LL	.	2G\	Chris-	2G/	Chriſ-	2b\	Chris-	16g\LL	16b\LL	(16b\LL
.	.	16a/J	.	16cc\J)	.	.	.	.	.	.	.	16a\J	16cc\J	16cc\J)
!	!	!	!	!LO:TX:a:t=|:problem	!	!	!	!	!	!	!	!	!	!
16G\L	.	8b/J)	.	8dd\J	.	.	.	.	.	.	.	8b\J	8dd\J	8dd\J
16A\JJ	.	.	.	.	.	.	.	.	.	.	.	.	.	.
8B\L	.	4b/	.	4ddT\	.	.	.	.	.	.	.	4b\	4dd\	4ddT\
16A\L	.	.	.	.	.	.	.	.	.	.	.	.	.	.
16G\JJ	.	.	.	.	.	.	.	.	.	.	.	.	.	.
8d\L	.	(16f#/LL	.	(16a\LL	.	4.d\	-te	4.F#/	-te	4.a\	-te	16d\LL	16a\LL	(16a\LL
.	.	16g/J	.	16b\J)	.	.	.	.	.	.	.	16g\J	16b\J	16b\J)
!	!	!	!	!LO:TX:a:t=|:problem	!	!	!	!	!	!	!	!	!	!
16D\L	.	8a/J)	.	8cc\J	.	.	.	.	.	.	.	8a\J	8cc\J	8cc\J
16E\JJ	.	.	.	.	.	.	.	.	.	.	.	.	.	.
8F#\L	.	4a/	.	4ccT\	.	.	.	.	.	.	.	4a\	4cc\	4ccT\
16E\L	.	.	.	.	.	8D\	ex-	8F#/	e-	8a\	e-	.	.	.
16D\JJ	.	.	.	.	.	.	.	.	.	.	.	.	.	.
=17	=17	=17	=17	=17	=17	=17	=17	=17	=17	=17	=17	=17	=17	=17
8G\L	.	8g/L	.	8b\L	.	4G\	-au-	4.G/	-xau-	4.b\	-xau-	4g\	4b\	8b\L
16G\L	.	8b/J	.	8gg\J	.	.	.	.	.	.	.	.	.	8gg\J
16A\JJ	.	.	.	.	.	.	.	.	.	.	.	.	.	.
8B\L	.	4bt/	.	4gg\	.	8B\	.	.	.	.	.	4r	4r	4ggT\
16A\L	.	.	.	.	.	8G\	-di	8G/	-di	8b\	-di	.	.	.
16G\JJ	.	.	.	.	.	.	.	.	.	.	.	.	.	.
.	.	8qqb/	.	8qqgg/	.	.	.	.	.	.	.	.	.	8qqgg/
!LO:LB:g=original	!	!	!	!	!	!	!	!	!	!	!	!	!	!
8d\L	.	4a/	.	4ff#\	.	4d\	nos	4F#/	nos	4a\	nos	8d/L	8a\L	4ff#\
8D\J	.	.	.	.	.	.	.	.	.	.	.	8d/J	8a\J	.
4D\	.	4r	.	4r	.	4r	.	4r	.	4r	.	4d/	4a\	4r
!	!	!	!	!	!	!LO:LB:g=original	!	!	!	!LO:LB:g=original	!	!	!	!
=18	=18	=18	=18	=18	=18	=18	=18	=18	=18	=18	=18	=18	=18	=18
!LO:TX:t=P:problem=mixed beam	!	!	!	!LO:TX:t=P:problem=mixed beam	!	!LO:TX:t=P:problem=mixed beam	!	!	!	!	!	!	!	!
8GG/L	.	16g/LL	.	16g/LL	.	8GG/L	Chris-	2g\	Chriſ-	2b\	Chris-	[>1g/	[1b\	1gg\
.	.	16b/	.	16gg\	.	.	.	.	.	.	.	.	.	.
8G\	.	16g/	.	16g/	.	8G\	.	.	.	.	.	.	.	.
.	.	16b/JJ	.	16gg\JJ	.	.	.	.	.	.	.	.	.	.
!	!	!	!	!LO:TX:t=P:problem=mixed beam	!	!	!	!	!	!	!	!	!	!
8F#\	.	16g/LL	.	16g/LL	.	8F#\	.	.	.	.	.	.	.	.
.	.	16b/	.	16gg\	.	.	.	.	.	.	.	.	.	.
8E\J	.	16g/	.	16g/	.	8E\J	.	.	.	.	.	.	.	.
.	.	16b/JJ	.	16gg\JJ	.	.	.	.	.	.	.	.	.	.
!	!	!	!	!LO:TX:t=P:problem=mixed beam	!	!	!	!	!	!	!	!	!	!
8D/L	.	16g/LL	.	16g/LL	.	8D/L	-te	2g\	-te	2b\	-te	.	.	.
.	.	16b/	.	16gg\	.	.	.	.	.	.	.	.	.	.
8C/	.	16g/	.	16g/	.	8C/	.	.	.	.	.	.	.	.
.	.	16b/JJ	.	16gg\JJ	.	.	.	.	.	.	.	.	.	.
!	!	!	!	!LO:TX:t=P:problem=mixed beam	!	!	!	!	!	!	!	!	!	!
8BB/	.	16g/LL	.	16g/LL	.	8BB/	.	.	.	.	.	.	.	.
.	.	16b/	.	16gg\	.	.	.	.	.	.	.	.	.	.
8AA/J	.	16g/	.	16g/	.	8AA/J	.	.	.	.	.	.	.	.
.	.	16b/JJ	.	16gg\JJ	.	.	.	.	.	.	.	.	.	.
!	!	!	!	!LO:LB:g=original	!	!	!	!	!	!	!	!	!	!
=19	=19	=19	=19	=19	=19	=19	=19	=19	=19	=19	=19	=19	=19	=19
!LO:TX:t=P:problem=mixed beam	!	!	!	!LO:TX:t=P:problem=mixed beam	!	!LO:TX:t=P:problem=mixed beam	!	!	!	!	!	!	!	!
*	*	*	*	*	*	*	*	*	*ij	*	*	*	*	*
8GG/L	.	16g/LL	.	16g/LL	.	8GG/L	Chris-	2g\	Chriſ-	2b\	Chris-	1g/]	1b\]	1gg\
.	.	16b/	.	16gg\	.	.	.	.	.	.	.	.	.	.
8G\	.	16g/	.	16g/	.	8G\	.	.	.	.	.	.	.	.
.	.	16b/JJ	.	16gg\JJ	.	.	.	.	.	.	.	.	.	.
!	!	!	!	!LO:TX:t=P:problem=mixed beam	!	!	!	!	!	!	!	!	!	!
8F#\	.	16g/LL	.	16g/LL	.	8F#\	.	.	.	.	.	.	.	.
.	.	16b/	.	16gg\	.	.	.	.	.	.	.	.	.	.
8E\J	.	16g/	.	16g/	.	8E\J	.	.	.	.	.	.	.	.
.	.	16b/JJ	.	16gg\JJ	.	.	.	.	.	.	.	.	.	.
!	!	!LO:LB:g=original	!	!	!	!	!	!	!	!	!	!	!	!
!	!	!	!	!LO:TX:t=P:problem=mixed beam	!	!	!	!	!	!	!	!	!	!
8D\L	.	16g/LL	.	16g/LL	.	8D/L	-te	2g\	-te	2b\	-te	.	.	.
*	*	*	*	*	*	*	*	*	*Xij	*	*	*	*	*
.	.	16b/	.	16gg\	.	.	.	.	.	.	.	.	.	.
8C\	.	16g/	.	16g/	.	8C/	.	.	.	.	.	.	.	.
.	.	16b/JJ	.	16gg\JJ	.	.	.	.	.	.	.	.	.	.
!	!	!	!	!LO:TX:t=P:problem=mixed beam	!	!	!	!	!	!	!	!	!	!
8BB\	.	16g/LL	.	16g/LL	.	8BB/	.	.	.	.	.	.	.	.
.	.	16b/	.	16gg\	.	.	.	.	.	.	.	.	.	.
8AA\J	.	16g/	.	16g/	.	8AA/J	.	.	.	.	.	.	.	.
.	.	16b/JJ	.	16gg\JJ	.	.	.	.	.	.	.	.	.	.
=20	=20	=20	=20	=20	=20	=20	=20	=20	=20	=20	=20	=20	=20	=20
8GG/L	.	8g/L	.	8g\L	.	8GG/L	ex-	4g\	e-	4b\	e-	4g\	4b\	8b\L
8BB/	.	8b/	.	8gg\	.	8BB/J	.	.	.	.	.	.	.	8gg\
8D/	.	8f#/	.	8a\	.	8D/	-au-	8f#\	-xau-	8a\	-xau-	8d/L	8a\L	8a\
8DD/J	.	8a/J	.	8ff#\J	.	8D/	-di	8f#\	-di	8a\	-di	8d/J	8a\J	8ff#\J
4GG/	.	16b\LL	.	16gg\LL	.	4GG/	nos	4g\	nos	4b\	nos	4g\	4b\	16gg\LL
.	.	16gg\	.	16gg\	.	.	.	.	.	.	.	.	.	16gg\
.	.	16dd\	.	16dd\	.	.	.	.	.	.	.	.	.	16dd\
.	.	16b\JJ	.	16b\JJ	.	.	.	.	.	.	.	.	.	16b\JJ
4r	.	4g/	.	4g/	.	4r	.	4r	.	4r	.	4r	4r	4g/
!	!	!	!	!	!	!	!	!LO:LB:g=original	!	!	!	!	!	!
=21	=21	=21	=21	=21	=21	=21	=21	=21	=21	=21	=21	=21	=21	=21
8G\L	.	8b\L	.	8gg\	.	4G\	Chris-	4B\	Chriſ-	4.gg\	Chris-	8g\L	8g\L	8gg\
8G\	.	8b\	.	4gg\	.	.	.	.	.	.	.	16g\L	16g\L	4gg\
.	.	.	.	.	.	.	.	.	.	.	.	16g\JJ	16g\JJ	.
8A\	.	8cc\	.	.	.	8A\L	.	8c\L	.	.	.	8g\L	8g\L	.
8B\J	.	8dd\J	.	8ffn\	.	8B\J	.	8d\J	.	8ffn\	.	8g\J	8g\J	8ffn\
4c\	.	16g\LL	.	(16ff\LL	.	4c\	-te	4G/	-te	2ee\	-te	4g\	4g\	4ee\
.	.	16cc\	.	16cc\	.	.	.	.	.	.	.	.	.	.
.	.	16dd\	.	16b\	.	.	.	.	.	.	.	.	.	.
.	.	16cc\JJ	.	16cc\JJ)	.	.	.	.	.	.	.	.	.	.
4r	.	4c/	.	4c/	.	4r	.	4r	.	.	.	4r	4r	4r
!	!	!	!	!	!	!	!	!	!	!	!	!	!	!LO:LB:g=original
=22	=22	=22	=22	=22	=22	=22	=22	=22	=22	=22	=22	=22	=22	=22
8A\L	.	8cc#X\L	.	8aa\	.	4A\	ex-	4c#X\	ex-	8aa\	e-	8a\L	8a\L	8aa\
8A\	.	8cc#\	.	4aa\	.	.	.	.	.	4aa\	-xau-	16a\L	16a\L	4aa\
.	.	.	.	.	.	.	.	.	.	.	.	16a\JJ	16a\JJ	.
8B\	.	8dd\	.	.	.	8B\	-au-	8d\	-au-	.	.	8a\L	8a\L	.
8c#X\J	.	8ee\J	.	8gg\	.	8c#X\	-di	8e\	-di	8gg\	-di	8a\J	8a\J	8gg\
!	!	!	!	!	!	!	!	!	!	!	!	!	!LO:LB:g=original	!
4d\	.	16a\LL	.	(16ff#X\LL	.	4d\	nos	4A\	nos	4ff#X\	nos	4a\	4a\	4ff#X\
.	.	16dd\	.	16dd\	.	.	.	.	.	.	.	.	.	.
.	.	16cc#X\	.	16cc#X\	.	.	.	.	.	.	.	.	.	.
.	.	16dd\JJ	.	16dd\JJ)	.	.	.	.	.	.	.	.	.	.
4r	.	4d/	.	4d/	.	4r	.	4r	.	4r	.	4r	4r	4r
!	!	!	!	!	!	!	!	!	!	!	!	!LO:LB:g=original	!	!
=23	=23	=23	=23	=23	=23	=23	=23	=23	=23	=23	=23	=23	=23	=23
8D\L	.	16dd\LL	.	16ff#\LL	.	8D\L	ex-	4A\	e-	4ff#\	e-	8d/L	8a\L	8ff#\L
.	.	16ff#\	.	16ddd\	.	.	.	.	.	.	.	.	.	.
16D\L	.	16ff#\	.	16ddd\	.	8E\J	.	.	.	.	.	16d/L	16a\L	16ff#\L
16E\JJ	.	16ff#\JJ	.	16ddd\JJ	.	.	.	.	.	.	.	16d/JJ	16a\JJ	16ff#\JJ
16F#\LL	.	16ff#\LL	.	16ddd\LL	.	16F#\LL	-au-	8d\	-xau-	8ff#\	-xau-	8d/L	8a\L	8ff#\L
16E\	.	16ff#\	.	16ddd\	.	16E\JJ	.	.	.	.	.	.	.	.
16F#\	.	16ff#\	.	16ddd\	.	16F#\LL	-di	8d\	-di	8ff#\	-di	8d/J	8a\J	8ff#\J
16G\JJ	.	16ff#\JJ	.	16ddd\JJ	.	16G\JJ	.	.	.	.	.	.	.	.
!LO:TX:t=P:problem=mixed beam	!	!	!	!	!	!	!	!	!	!	!	!	!	!
8A\L	.	8ee\L	.	8ccc#X\L	.	4A\	nos	4c\	nos	4ee\	nos	8a\L	4a\	8ee\L
16AA/L	.	16ee\L	.	16ccc#\L	.	.	.	.	.	.	.	16a\L	.	16ee\L
16AA/JJ	.	16ee\JJ	.	16ccc#\JJ	.	.	.	.	.	.	.	16a\JJ	.	16ee\JJ
4AA/	.	4ee\	.	4ccc#\	.	4r	.	4r	.	4r	.	4a\	4r	4ee\
!	!	!	!	!	!	!LO:LB:g=original	!	!	!	!	!	!	!	!
=24	=24	=24	=24	=24	=24	=24	=24	=24	=24	=24	=24	=24	=24	=24
8d\L	.	(16dd\LL	.	(16ff#\LL	.	2d\	Chris-	2d\	Chriſ-	2ff#\	Chris-	4d/	4a\	(16ff#\LL
.	.	16cc#X\	.	16ee\	.	.	.	.	.	.	.	.	.	16ee\
8d\	.	16dd\	.	16ff#\	.	.	.	.	.	.	.	.	.	16ff#\
.	.	16ee\JJ)	.	16gg\JJ)	.	.	.	.	.	.	.	.	.	16gg\JJ)
8d\	.	4dd\	.	4ff#\	.	.	.	.	.	.	.	4r	4r	4ff#\
8d\J	.	.	.	.	.	.	.	.	.	.	.	.	.	.
!	!	!	!	!LO:LB:g=original	!	!	!	!	!	!	!	!	!	!
8c#X\L	.	(16dd\LL	.	(16ff#\LL	.	2c#X\	-te	2d\	-te	2ff#\	-te	2r	2r	(16ff#\LL
.	.	16cc#\	.	16ee\	.	.	.	.	.	.	.	.	.	16ee\
8c#\	.	16dd\	.	16ff#\	.	.	.	.	.	.	.	.	.	16ff#\
.	.	16ee\JJ)	.	16gg\JJ)	.	.	.	.	.	.	.	.	.	16gg\JJ)
8c#\	.	4dd\	.	4ff#\	.	.	.	.	.	.	.	.	.	4ff#\
8c#\J	.	.	.	.	.	.	.	.	.	.	.	.	.	.
=25	=25	=25	=25	=25	=25	=25	=25	=25	=25	=25	=25	=25	=25	=25
*	*	*	*	*	*	*	*	*	*ij	*	*ij	*	*	*
8B\L	.	(16dd\LL	.	(16ff#\LL	.	2B\	Chris-	2d\	Chriſ-	2ff#\	Chris-	4d/	4a\	(16ff#\LL
.	.	16cc#X\	.	16ee\	.	.	.	.	.	.	.	.	.	16ee\
8B\	.	16dd\	.	16ff#\	.	.	.	.	.	.	.	.	.	16ff#\
.	.	16ee\JJ)	.	16gg\JJ)	.	.	.	.	.	.	.	.	.	16gg\JJ)
8B\	.	4dd\	.	4ff#\	.	.	.	.	.	.	.	4r	4r	4ff#\
8B\J	.	.	.	.	.	.	.	.	.	.	.	.	.	.
8G\L	.	(16dd\LL	.	(16ff#\LL	.	4G\	.	2d\	-te	2ff#\	-te	2r	2r	(16ff#\LL
*	*	*	*	*	*	*	*	*	*Xij	*	*Xij	*	*	*
.	.	16cc#X\	.	16ee\	.	.	.	.	.	.	.	.	.	16ee\
8G\	.	16dd\	.	16ff#\	.	.	.	.	.	.	.	.	.	16ff#\
.	.	16ee\JJ)	.	16gg\JJ)	.	.	.	.	.	.	.	.	.	16gg\JJ)
8D\J	.	4dd\	.	4ff#\	.	4D\	-te	.	.	.	.	.	.	4ff#\
!LO:TX:t=P:problem=dźwięk niewidoczny	!	!	!	!	!	!	!	!	!	!	!	!	!	!
8ryy	.	.	.	.	.	.	.	.	.	.	.	.	.	.
!LO:LB:g=original	!	!LO:LB:g=original	!	!	!	!	!	!	!	!LO:LB:g=original	!	!	!	!
=26	=26	=26	=26	=26	=26	=26	=26	=26	=26	=26	=26	=26	=26	=26
*	*	*2\right	*	*	*	*	*	*	*	*	*	*	*	*
8G\L	.	2ee\	.	2gg\	.	4G\	au-	2e\	au-	2gg\	au-	2g\	2b\	2gg\
8G\	.	.	.	.	.	.	.	.	.	.	.	.	.	.
8E\	.	.	.	.	.	4E\	.	.	.	.	.	.	.	.
8E\J	.	.	.	.	.	.	.	.	.	.	.	.	.	.
!LO:TX:t=P:problem=mixed beam	!	!	!	!	!	!	!	!	!	!	!	!	!	!
.	.	8qqdd/	.	8qqff#/	.	.	.	.	.	8qqff#/	.	.	.	8qqff#/
8A\L	.	2cc#X\	.	2ee\	.	4A\	.	2c#X\	-di	2ee\	-di	2a\	2a\	2ee\
8A\	.	.	.	.	.	.	.	.	.	.	.	.	.	.
8AA/	.	.	.	.	.	4AA/	-di	.	.	.	.	.	.	.
8AA/J	.	.	.	.	.	.	.	.	.	.	.	.	.	.
=27	=27	=27	=27	=27	=27	=27	=27	=27	=27	=27	=27	=27	=27	=27
4D\	.	8dd\L	.	16ff#\LL	.	4D\	nos	4d\	nos	4ff#\	nos	4d/	4a\	8ff#\L
.	.	.	.	16ff#\	.	.	.	.	.	.	.	.	.	.
.	.	16aa\L	.	16aa\	.	.	.	.	.	.	.	.	.	8aa\
.	.	16aa\JJ	.	16aa\JJ	.	.	.	.	.	.	.	.	.	.
8r	.	16ff#\LL	.	16ff#\LL	.	4r	.	4r	.	4r	.	4r	4r	8ff#\
.	.	16ff#\	.	16ff#\	.	.	.	.	.	.	.	.	.	.
8d\	.	16dd\	.	16dd\	.	.	.	.	.	.	.	.	.	8dd\J
.	.	16dd\JJ	.	16dd\JJ	.	.	.	.	.	.	.	.	.	.
8A\L	.	16a/LL	.	16a/LL	.	2r	.	2r	.	2r	.	2r	2r	8a/L
.	.	16a/	.	16a/	.	.	.	.	.	.	.	.	.	.
8F#\J	.	16f#/	.	16f#/	.	.	.	.	.	.	.	.	.	8f#/J
.	.	16f#/JJ	.	16f#/JJ	.	.	.	.	.	.	.	.	.	.
4D\	.	4d/	.	4d/	.	.	.	.	.	.	.	.	.	4d/
!	!	!	!	!	!	!	!	!LO:LB:g=original	!	!	!	!	!	!
=28	=28	=28	=28	=28	=28	=28	=28	=28	=28	=28	=28	=28	=28	=28
8D/L	.	(16f#/LL	.	(16dd\LL	.	2d\	Chris-	2F#/	Chriſ-	2dd\	Chris-	4d/	4a\	0r
.	.	16e/	.	16cc#X\	.	.	.	.	.	.	.	.	.	.
8D/	.	16f#/	.	16dd\	.	.	.	.	.	.	.	.	.	.
.	.	16g/JJ)	.	16ee\JJ)	.	.	.	.	.	.	.	.	.	.
8D/	.	4f#/	.	4dd\	.	.	.	.	.	.	.	4r	4r	.
8D/J	.	.	.	.	.	.	.	.	.	.	.	.	.	.
8C#X/L	.	16f#/LL	.	(16dd\LL	.	2c#X\	-te	2F#/	-te	2dd\	-te	2r	2r	.
.	.	16e/	.	16cc#\	.	.	.	.	.	.	.	.	.	.
8C#/	.	16f#/	.	16dd\	.	.	.	.	.	.	.	.	.	.
.	.	16g/JJ	.	16ee\JJ)	.	.	.	.	.	.	.	.	.	.
8C#/	.	4f#/	.	4dd\	.	.	.	.	.	.	.	.	.	.
8C#/J	.	.	.	.	.	.	.	.	.	.	.	.	.	.
=29	=29	=29	=29	=29	=29	=29	=29	=29	=29	=29	=29	=29	=29	=29
*	*	*	*	*	*	*	*	*	*ij	*	*ij	*	*	*
8BB/L	.	(16f#/LL	.	(16dd\LL	.	2B\	Chris-	2F#/	Chriſ-	2dd\	Chris-	4d/	4a\	.
!	!	!	!	!LO:SIC:v:s=16cc#	!	!	!	!	!	!	!	!	!	!
.	.	16e/	.	16cc\	.	.	.	.	.	.	.	.	.	.
8BB/	.	16f#/	.	16dd\	.	.	.	.	.	.	.	.	.	.
.	.	16g/JJ)	.	16ee\JJ)	.	.	.	.	.	.	.	.	.	.
8BB/	.	4f#/	.	4dd\	.	.	.	.	.	.	.	4r	4r	.
8BB/J	.	.	.	.	.	.	.	.	.	.	.	.	.	.
8F#\L	.	(16f#/LL	.	(16dd\LL	.	4F#\	-te	4F#/	-te	4dd\	-te	2r	2r	.
*	*	*	*	*	*	*	*	*	*Xij	*	*Xij	*	*	*
!	!	!	!	!LO:SIC:v:s=16cc#	!	!	!	!	!	!	!	!	!	!
.	.	16e/	.	16cc\	.	.	.	.	.	.	.	.	.	.
8F#\	.	16f#/	.	16dd\	.	.	.	.	.	.	.	.	.	.
.	.	16g/JJ)	.	16ee\JJ)	.	.	.	.	.	.	.	.	.	.
8D\	.	4f#/	.	4dd\	.	4D\	ex-	4F#/	ex-	4dd\	ex-	.	.	.
8D\J	.	.	.	.	.	.	.	.	.	.	.	.	.	.
=30	=30	=30	=30	=30	=30	=30	=30	=30	=30	=30	=30	=30	=30	=30
8G\L	.	4b/	.	2ee\	.	4G\	-au-	(4B\	-au-	2ee\	-au-	2g\	2b\	1r
8G\	.	.	.	.	.	.	.	.	.	.	.	.	.	.
8E\	.	4g/	.	.	.	4E\	.	4G\)	.	.	.	.	.	.
8E\J	.	.	.	.	.	.	.	.	.	.	.	.	.	.
!LO:TX:t=P:problem=mixed beam	!	!	!	!	!	!	!	!	!	!	!	!	!	!
.	.	8qqf#/	.	8qqdd/	.	.	.	8qqF#/	.	8qqdd/	.	.	.	.
8A\L	.	2e/	.	2cc#X\	.	4A\	.	2E/	-di	2cc#X\	-di	2a\	2a\	.
8A\	.	.	.	.	.	.	.	.	.	.	.	.	.	.
8AA/	.	.	.	.	.	4AA/	-di	.	.	.	.	.	.	.
8AA/J	.	.	.	.	.	.	.	.	.	.	.	.	.	.
=31	=31	=31	=31	=31	=31	=31	=31	=31	=31	=31	=31	=31	=31	=31
!	!	!LO:TX:t=P:problem=mixed beam	!	!	!	!	!	!	!	!	!	!	!	!
.	.	.	.	.	.	.	.	8qqE/	.	8qqcc/	.	.	.	.
8D\L	.	8f#/L	.	8dd\L	.	4D\	nos	4F#/	nos	4dd\	nos	8d/L	8a\L	8r
16d\L	.	16dd\L	.	16dd\L	.	.	.	.	.	.	.	16d/L	16a\L	8dd\L
16d\JJ	.	16dd\JJ	.	16dd\JJ	.	.	.	.	.	.	.	16d/JJ	16a\JJ	.
16A\LL	.	16a/LL	.	16a/LL	.	4r	.	4r	.	4r	.	8d/L	8a\L	8a\
16A\	.	16a/	.	16a/	.	.	.	.	.	.	.	.	.	.
16F#\	.	16f#/	.	16f#/	.	.	.	.	.	.	.	8d/J	8a\J	8f#\J
16F#\JJ	.	16f#/JJ	.	16f#/JJ	.	.	.	.	.	.	.	.	.	.
!	!	!	!	!LO:LB:g=original	!	!	!	!	!	!	!	!	!	!
8D\L	.	4d/	.	4d/	.	2r	.	2r	.	2r	.	4d/	4a\	4d/
16E\L	.	.	.	.	.	.	.	.	.	.	.	.	.	.
16F#\JJ	.	.	.	.	.	.	.	.	.	.	.	.	.	.
16G\LL	.	4r	.	4r	.	.	.	.	.	.	.	4r	4r	4r
16A\	.	.	.	.	.	.	.	.	.	.	.	.	.	.
16B\	.	.	.	.	.	.	.	.	.	.	.	.	.	.
16c#X\JJ	.	.	.	.	.	.	.	.	.	.	.	.	.	.
=32	=32	=32	=32	=32	=32	=32	=32	=32	=32	=32	=32	=32	=32	=32
!	!	!	!	!	!	!	!	!	!	!	!	!LO:TX:a:rj:i:t=ſolo	!LO:TX:a:rj:i:t=ſolo	!
8d\L	.	0r	.	0r	.	0r	.	0r	.	0r	.	16d\LL	16a\LL	0r
.	.	.	.	.	.	.	.	.	.	.	.	16g\J	16b\J	.
!	!LO:DY:a:t=pia&colon;	!	!	!	!	!	!	!	!	!	!	!	!	!
8D\	p	.	.	.	.	.	.	.	.	.	.	8a\J	8cc\J	.
8D\	.	.	.	.	.	.	.	.	.	.	.	8a\L	8cc\L	.
8D\J	.	.	.	.	.	.	.	.	.	.	.	8a\J	8cc\J	.
8D\L	.	.	.	.	.	.	.	.	.	.	.	4a\	4cc\	.
8D\	.	.	.	.	.	.	.	.	.	.	.	.	.	.
8D\	.	.	.	.	.	.	.	.	.	.	.	4a\	4cc\	.
8D\J	.	.	.	.	.	.	.	.	.	.	.	.	.	.
=33	=33	=33	=33	=33	=33	=33	=33	=33	=33	=33	=33	=33	=33	=33
8D\L	.	.	.	.	.	.	.	.	.	.	.	16d\LL	16a\LL	.
.	.	.	.	.	.	.	.	.	.	.	.	16g\J	16b\J	.
8D\	.	.	.	.	.	.	.	.	.	.	.	8a\J	8cc\J	.
8D\	.	.	.	.	.	.	.	.	.	.	.	8a\L	8cc\L	.
8D\J	.	.	.	.	.	.	.	.	.	.	.	8a\J	8cc\J	.
.	.	.	.	.	.	.	.	.	.	.	.	8qqa/	8qqcc/	.
16G\LL	.	.	.	.	.	.	.	.	.	.	.	4g\	4b\	.
16A\	.	.	.	.	.	.	.	.	.	.	.	.	.	.
16B\	.	.	.	.	.	.	.	.	.	.	.	.	.	.
16cn\JJ	.	.	.	.	.	.	.	.	.	.	.	.	.	.
4d\	.	.	.	.	.	.	.	.	.	.	.	4d/	4a\	.
!LO:LB:g=original	!	!	!	!	!	!	!	!	!	!	!	!LO:LB:g=original	!LO:LB:g=original	!LO:LB:g=original
=34	=34	=34	=34	=34	=34	=34	=34	=34	=34	=34	=34	=34	=34	=34
!LO:TX:a:i:t=Tutti	!	!	!	!	!	!	!	!	!	!	!	!	!	!
8G\L	.	16gg\LL	.	16bb\LL	.	2G\	Chris-	2B\	Chriſ-	2dd\	Chris-	4g\	4b\	8bb\L
.	.	16gg\	.	16bb\	.	.	.	.	.	.	.	.	.	.
8G\	.	16dd\	.	16gg\	.	.	.	.	.	.	.	.	.	8gg\
.	.	16dd\JJ	.	16gg\JJ	.	.	.	.	.	.	.	.	.	.
8G\	.	16b/LL	.	16dd\LL	.	.	.	.	.	.	.	4r	4r	8dd\
.	.	16b/	.	16dd\	.	.	.	.	.	.	.	.	.	.
8G\J	.	16g/	.	16b\	.	.	.	.	.	.	.	.	.	8b\J
.	.	16g/JJ	.	16b\JJ	.	.	.	.	.	.	.	.	.	.
!LO:TX:t=P:problem=mixed beam	!	!	!	!LO:TX:t=P:problem=mixed beam	!	!	!	!	!	!	!	!	!	!
8G\L	.	8d/L	.	8g/L	.	4G\	-te	4B\	-te	4dd\	-te	8g\L	8b\L	8g\L
8GG/	.	8b/J	.	8dd\J	.	.	.	.	.	.	.	8b\J	8dd\J	8dd\J
8BB/	.	4bt/	.	4dd\	.	4r	.	4r	.	4r	.	4b\	4dd\	4ddT\
8GG/J	.	.	.	.	.	.	.	.	.	.	.	.	.	.
=35	=35	=35	=35	=35	=35	=35	=35	=35	=35	=35	=35	=35	=35	=35
*	*	*	*	*	*	*	*	*	*ij	*	*ij	*	*	*
8D\L	.	16ff#\LL	.	16aa\LL	.	2D\	Chris-	2A\	Chriſ-	2cc\	Chris-	4a\	4cc\	8aa\L
.	.	16ff#\	.	16aa\	.	.	.	.	.	.	.	.	.	.
8D\	.	16ccn\	.	16ff#\	.	.	.	.	.	.	.	.	.	8ff#\
.	.	16cc\JJ	.	16ff#\JJ	.	.	.	.	.	.	.	.	.	.
8D\	.	16a/LL	.	16ccn\LL	.	.	.	.	.	.	.	4r	4r	8cc\
.	.	16a/	.	16cc\	.	.	.	.	.	.	.	.	.	.
8D\J	.	16f#/	.	16a\	.	.	.	.	.	.	.	.	.	8a\J
.	.	16f#/JJ	.	16a\JJ	.	.	.	.	.	.	.	.	.	.
!	!	!LO:LB:g=original	!	!	!	!	!	!	!	!	!	!	!	!
8D\L	.	8d/L	.	8f#/L	.	4D\	-te	4A\	-te	4cc\	-te	8d\L	8a\L	8f#/L
*	*	*	*	*	*	*	*	*	*Xij	*	*Xij	*	*	*
8D\	.	8a/J	.	8cc/J	.	.	.	.	.	.	.	8a\J	8cc\J	8cc/J
8F#\	.	4aT/	.	4cc/	.	4r	.	4r	.	4r	.	4a\	4cc\	4ccT/
8D\J	.	.	.	.	.	.	.	.	.	.	.	.	.	.
!	!	!	!	!	!	!LO:LB:g=original	!	!	!	!	!	!	!	!
=36	=36	=36	=36	=36	=36	=36	=36	=36	=36	=36	=36	=36	=36	=36
8G\L	.	8b/L	.	8b/L	.	4G\	ex-	4G/	e-	4b\	e-	8g\L	8b\L	8b\L
16G\L	.	8gg/ 8b/ 8d/	.	8gg/ 8b/ 8d/	.	.	.	.	.	.	.	8g\	8b\	8gg\
16A\JJ	.	.	.	.	.	.	.	.	.	.	.	.	.	.
8B\L	.	8gg/ 8b/ 8d/	.	8gg/ 8b/ 8d/	.	8B\	-au-	8G/	-xau-	8b\	-xau-	8g\	8b\	8gg\
16A\L	.	8gg/J 8b/ 8d/	.	8gg/J 8b/ 8d/	.	8G\	-di	8G/	-di	8b\	-di	8g\J	8b\J	8gg\J
16G\JJ	.	.	.	.	.	.	.	.	.	.	.	.	.	.
!LO:TX:t=P:problem=mixed beam	!	!	!	!	!	!	!	!	!	!	!	!	!	!
8d\L	.	4ff#/ 4a/ 4d/	.	4ff#/ 4a/ 4d/	.	4d\	nos	4F#/	nos	4a\	nos	4d/	4a\	4ff#\
16D/L	.	.	.	.	.	.	.	.	.	.	.	.	.	.
16Cn/JJ	.	.	.	.	.	.	.	.	.	.	.	.	.	.
!LO:TX:a:i:t=Solo.	!	!	!	!	!	!	!	!	!	!	!	!	!	!
8BB-X/L	.	4r	.	4r	.	4r	.	4r	.	4r	.	4r	4r	4r
8AA/J	.	.	.	.	.	.	.	.	.	.	.	.	.	.
!	!	!	!	!	!	!	!	!LO:LB:g=original	!	!LO:LB:g=original	!	!	!	!
=37	=37	=37	=37	=37	=37	=37	=37	=37	=37	=37	=37	=37	=37	=37
!	!	!	!LO:DY:a:t=pia&colon;	!	!LO:DY:a	!	!	!LO:TX:a:i:t=ſolo	!	!LO:TX:a:rj:i:t=ſolo	!	!	!	!
8GG/L	.	4.b-X\	p	4.dd\	p	00r	.	4.B-X\	Chriſ-	4.dd\	Chris-	00r	00r	00r
8GG/	.	.	.	.	.	.	.	.	.	.	.	.	.	.
8GG/	.	.	.	.	.	.	.	.	.	.	.	.	.	.
8GG/J	.	8cc\	.	8ee-X\	.	.	.	8c\	.	8ee-X\	.	.	.	.
.	.	8qqcc/	.	8qqee-/	.	.	.	8qqc/	.	8qqee-/	.	.	.	.
8GG/L	.	2b-\	.	2dd\	.	.	.	2B-\	-te	2dd\	-te	.	.	.
8GG/	.	.	.	.	.	.	.	.	.	.	.	.	.	.
8GG/	.	.	.	.	.	.	.	.	.	.	.	.	.	.
8GG/J	.	.	.	.	.	.	.	.	.	.	.	.	.	.
=38	=38	=38	=38	=38	=38	=38	=38	=38	=38	=38	=38	=38	=38	=38
8GG/L	.	8dd\L	.	8bb-X\L	.	.	.	4B\	au-	4dd\	au-	.	.	.
8GG/	.	(8b-X\	.	(8dd\	.	.	.	.	.	.	.	.	.	.
8GG/	.	8a\	.	8cc\	.	.	.	8A\L	-di	(8cc\L	-di	.	.	.
8GG/J	.	8g\J)	.	8b-X\J)	.	.	.	8G\J	.	8b-X\J)	.	.	.	.
.	.	8qqg/	.	8qqb-/	.	.	.	8qqG/	.	8qqb-/	.	.	.	.
8D\L	.	2a/	.	2cc\	.	.	.	2A\	nos	2cc\	nos	.	.	.
8D\	.	.	.	.	.	.	.	.	.	.	.	.	.	.
8D\	.	.	.	.	.	.	.	.	.	.	.	.	.	.
8D\J	.	.	.	.	.	.	.	.	.	.	.	.	.	.
=39	=39	=39	=39	=39	=39	=39	=39	=39	=39	=39	=39	=39	=39	=39
8D\L	.	4.a/	.	(4.cc\	.	.	.	4.A\	Chriſ-	(4.cc\	Chris-	.	.	.
8D\	.	.	.	.	.	.	.	.	.	.	.	.	.	.
8D\	.	.	.	.	.	.	.	.	.	.	.	.	.	.
8D\J	.	8b-X/	.	8dd\)	.	.	.	8B-X\	.	8dd\)	.	.	.	.
.	.	8qqb-/	.	8qqdd/	.	.	.	.	.	8qqdd/	.	.	.	.
8D\L	.	2a/	.	2cc\	.	.	.	4.A\	-te	4.cc\	-te	.	.	.
8D\	.	.	.	.	.	.	.	.	.	.	.	.	.	.
8D\	.	.	.	.	.	.	.	.	.	.	.	.	.	.
8D\J	.	.	.	.	.	.	.	8A\	e-	8dd\	ex-	.	.	.
!	!	!	!	!LO:LB:g=original	!	!	!	!	!	!	!	!	!	!
=40	=40	=40	=40	=40	=40	=40	=40	=40	=40	=40	=40	=40	=40	=40
8D\L	.	8cc\L	.	8aa\L	.	.	.	4A\	-xau-	4cc\	-au-	.	.	.
8D\	.	(8a\	.	(8cc\	.	.	.	.	.	.	.	.	.	.
8D\	.	8g\	.	8b-X\	.	.	.	8G/L	-di	(8b-X\L	-di	.	.	.
8D\J	.	8f#X\J)	.	8a\J)	.	.	.	8F#X/J	.	8a\J)	.	.	.	.
.	.	8qqf#/	.	8qqa/	.	.	.	8qqF#/	.	8qqa/	.	.	.	.
8GG/L	.	2g/	.	2b-\	.	.	.	2G/	nos	2b-\	nos	.	.	.
8GG/	.	.	.	.	.	.	.	.	.	.	.	.	.	.
8GG/	.	.	.	.	.	.	.	.	.	.	.	.	.	.
8GG/J	.	.	.	.	.	.	.	.	.	.	.	.	.	.
=41	=41	=41	=41	=41	=41	=41	=41	=41	=41	=41	=41	=41	=41	=41
!LO:TX:b:t=|:problem	!	!LO:TX:b:t=|:problem	!LO:DY:a	!LO:TX:b:t=|:problem	!LO:DY:a	!	!	!	!	!	!	!	!	!
8GG/L	.	8G/L	f	8G/L	f	8GG/L	Chris-	0r	.	0r	.	0r	0r	0r
!LO:TX:b:t=|:problem	!	!LO:TX:b:t=|:problem	!	!LO:TX:b:t=|:problem	!	!	!	!	!	!	!	!	!	!
8BB-X/	.	8B-X/	.	8B-X/	.	8BB-X/J	.	.	.	.	.	.	.	.
!LO:TX:b:t=|:problem	!	!LO:TX:b:t=|:problem	!	!LO:TX:b:t=|:problem	!	!	!	!	!	!	!	!	!	!
8D/	.	8d/	.	8d/	.	8D\	-te	.	.	.	.	.	.	.
!LO:TX:b:t=|:problem	!	!LO:TX:b:t=|:problem	!	!LO:TX:b:t=|:problem	!	!	!	!	!	!	!	!	!	!
8F#X/J	.	8f#X/J	.	8f#X/J	.	8F#X\	ex-	.	.	.	.	.	.	.
!LO:LB:g=original	!	!	!	!	!	!	!	!	!	!	!	!	!	!
!LO:TX:a:t=|:problem	!	!LO:TX:b:t=|:problem	!	!LO:TX:b:t=|:problem	!	!	!	!	!	!	!	!	!	!
8G\L	.	8g/L	.	8g/L	.	8G\L	-au-	.	.	.	.	.	.	.
!	!	!	!	!LO:SIC:v:s=8b-	!	!	!	!	!	!	!	!	!	!
!LO:TX:a:t=|:problem	!	!LO:TX:b:t=|:problem	!	!LO:TX:b:t=|:problem	!	!	!	!	!	!	!	!	!	!
8B-X\	.	8b-X/	.	8b/	.	8B-X\	.	.	.	.	.	.	.	.
!LO:TX:a:t=|:problem	!	!LO:TX:b:t=|:problem	!	!LO:TX:b:t=|:problem	!	!	!	!	!	!	!	!	!	!
8d\	.	8dd/	.	8dd/	.	8d\	.	.	.	.	.	.	.	.
!LO:TX:a:t=|:problem	!	!LO:TX:b:t=|:problem	!	!LO:TX:b:t=|:problem	!	!	!	!	!	!	!	!	!	!
8F#X\J	.	8f#X/J	.	8f#X/J	.	8F#X\J	.	.	.	.	.	.	.	.
=42	=42	=42	=42	=42	=42	=42	=42	=42	=42	=42	=42	=42	=42	=42
8G\L	.	8g/L	.	8g/L	.	8G\L	.	.	.	.	.	.	.	.
8E-X\	.	8e-X/	.	8e-X/	.	8E-X\	.	.	.	.	.	.	.	.
8D\	.	8d/	.	8d/	.	8D\J	.	.	.	.	.	.	.	.
8C#X\J	.	8c#X/J	.	8c#X/J	.	8C#X\	-di	.	.	.	.	.	.	.
8D/L	.	4d/	.	4d/	.	4D\	nos	.	.	.	.	.	.	.
16D/L	.	.	.	.	.	.	.	.	.	.	.	.	.	.
16Cn/JJ	.	.	.	.	.	.	.	.	.	.	.	.	.	.
8BBn/L	.	4r	.	4r	.	4r	.	.	.	.	.	.	.	.
8AA/J	.	.	.	.	.	.	.	.	.	.	.	.	.	.
=43	=43	=43	=43	=43	=43	=43	=43	=43	=43	=43	=43	=43	=43	=43
!LO:TX:a:i:t=Tutti	!	!	!	!	!	!	!	!	!	!	!	!	!	!
!LO:TX:t=P:problem=mixed beam	!	!	!	!	!	!	!	!	!	!LO:TX:a:i:t=Tutti	!	!	!	!
8GG/L	.	16dd\LL	.	16ffn\LL	.	8G\	Chris-	8d\	Chriſ-	8ffn\	Chris-	8g\L	8b\L	16ffn\LL
.	.	16dd\	.	16ff\	.	.	.	.	.	.	.	.	.	16ff\
8G\	.	16bn\	.	16dd\	.	8G\	-te	8d\	-te	8ff\	-te	8g\	8b\	16dd\
.	.	16b\JJ	.	16dd\JJ	.	.	.	.	.	.	.	.	.	16dd\JJ
8G\	.	16fn/LL	.	16bn/LL	.	8G\	au-	8d\	au-	8ff\	au-	8g\	8b\	16b\LL
.	.	16f/	.	16b/	.	.	.	.	.	.	.	.	.	16b\
8G\J	.	16d/	.	16fn/	.	8G\	-di	8d\	-di	8ff\	-di	8g\J	8b\J	16ff\
.	.	16d/JJ	.	16f/JJ	.	.	.	.	.	.	.	.	.	16ff\JJ
!	!	!LO:LB:g=original	!	!	!	!	!	!	!	!	!	!	!	!
4C/	.	16c/LL	.	16e/LL	.	4Cn/	nos	4c\	nos	4ee\	nos	4g\	4cc\	4ee\
.	.	16e/	.	16g/	.	.	.	.	.	.	.	.	.	.
.	.	16g/	.	16cc/	.	.	.	.	.	.	.	.	.	.
.	.	16cc/JJ	.	16ee/JJ	.	.	.	.	.	.	.	.	.	.
4r	.	4ee\	.	4gg\	.	4r	.	4r	.	4r	.	4r	4r	4r
=44	=44	=44	=44	=44	=44	=44	=44	=44	=44	=44	=44	=44	=44	=44
!	!	!	!	!	!	!	!	!	!	!	!	!	!	!LO:SIC:v:s=16ffn
8G\L	.	16dd\LL	.	16ffn\LL	.	4G\	ex-	4d\	ex-	4ff#\	ex-	8g\L	8b\L	16ff#\LL
!	!	!	!	!	!	!	!	!	!	!	!	!	!	!LO:SIC:v:s=16ffn
.	.	16dd\	.	16ff\	.	.	.	.	.	.	.	.	.	16ff#\
8G\	.	16bn\	.	16dd\	.	.	.	.	.	.	.	8g\	8b\	16dd\
.	.	16b\JJ	.	16dd\JJ	.	.	.	.	.	.	.	.	.	16dd\JJ
8G\	.	16f#/LL	.	16b/LL	.	8G\	-au-	8d\	-au-	8ff#\	-au-	8g\	8b\	16b\LL
.	.	16f#/	.	16b/	.	.	.	.	.	.	.	.	.	16b\
!	!	!	!	!	!	!	!	!	!	!	!	!	!	!LO:SIC:v:s=16ffn
8G\J	.	16d/	.	16fn/	.	8G\	-di	8d\	-di	8ff#\	-di	8g\J	8b\J	16ff#\
!	!	!	!	!	!	!	!	!	!	!	!	!	!	!LO:SIC:v:s=16ffn
.	.	16d/JJ	.	16f/JJ	.	.	.	.	.	.	.	.	.	16ff#\JJ
!	!	!	!	!	!	!	!	!LO:LB:g=originalv	!	!	!	!	!	!
.	.	8qqd/	.	8qqf/	.	.	.	8qqd/	.	8qqff#/	.	.	.	8qqff#/
8C/L	.	2c/	.	2e/	.	2C/	nos	2c\	nos	2ee\	nos	4g\	4cc\	4ee\
8GG/J	.	.	.	.	.	.	.	.	.	.	.	.	.	.
4C/	.	.	.	.	.	.	.	.	.	.	.	4r	4r	4r
!	!	!	!	!LO:LB:g=original	!	!	!	!	!	!	!	!	!	!
=45	=45	=45	=45	=45	=45	=45	=45	=45	=45	=45	=45	=45	=45	=45
8A\L	.	16ee\LL	.	16gg\LL	.	8A\	Chris-	8e\	Chriſ-	8gg\	Chris-	8a\L	8cc#X\L	16gg\LL
.	.	16ee\	.	16gg\	.	.	.	.	.	.	.	.	.	16gg\
8A\	.	16cc#X\	.	16ee\	.	8A\	-te	8e\	-te	8gg\	-te	8a\	8cc#\	16ee\
.	.	16cc#\JJ	.	16ee\JJ	.	.	.	.	.	.	.	.	.	16ee\JJ
8A\	.	16g/LL	.	16cc#X\LL	.	8A\	au-	8e\	au-	8gg\	au-	8a\	8cc#\	16cc#X\LL
.	.	16g/	.	16cc#\	.	.	.	.	.	.	.	.	.	16cc#\
8A\J	.	16e/	.	16g\	.	8A\	-di	8e\	-di	8gg\	-di	8a\J	8cc#\J	16gg\
.	.	16e/JJ	.	16g\JJ	.	.	.	.	.	.	.	.	.	16gg\JJ
!	!	!	!	!	!	!LO:LB:g=original	!	!	!	!LO:LB:g=original	!	!	!	!
4D\	.	16d/LL	.	16f#X/LL	.	4D\	nos	4d\	nos	4ff#X\	nos	4a\	4dd\	4ff#X\
.	.	16f#X/	.	16a/	.	.	.	.	.	.	.	.	.	.
.	.	16a/	.	16dd/	.	.	.	.	.	.	.	.	.	.
.	.	16dd/JJ	.	16ff#/JJ	.	.	.	.	.	.	.	.	.	.
4r	.	4ff#\	.	4aa\	.	4r	.	4r	.	4r	.	4r	4r	4r
=46	=46	=46	=46	=46	=46	=46	=46	=46	=46	=46	=46	=46	=46	=46
8A\L	.	16ee\LL	.	16gg\LL	.	4A\	ex-	4e\	ex-	4gg\	ex-	8a\L	8cc#X\L	16gg\LL
.	.	16ee\	.	16gg\	.	.	.	.	.	.	.	.	.	16gg\
8A\	.	16cc#X\	.	16ee\	.	.	.	.	.	.	.	8a\	8cc#\	16ee\
.	.	16cc#\JJ	.	16ee\JJ	.	.	.	.	.	.	.	.	.	16ee\JJ
8A\	.	16g/LL	.	16cc#X\LL	.	8A\	-au-	8e\	-au-	8gg\	-au-	8a\	8cc#\	16cc#X\LL
.	.	16g/	.	16cc#\	.	.	.	.	.	.	.	.	.	16cc#\
8A\J	.	16e/	.	16g\	.	8A\	-di	8e\	-di	8gg\	-di	8a\J	8cc#\J	16gg\
.	.	16e/JJ	.	16g\JJ	.	.	.	.	.	.	.	.	.	16gg\JJ
.	.	8qqe/	.	8qqg/	.	.	.	.	.	.	.	.	.	8qqgg/
8D/L	.	4d/	.	4f#/	.	4D\	nos	4d\	nos	4ff#X\	nos	4d/	4dd\	4ff#\
16D/L	.	.	.	.	.	.	.	.	.	.	.	.	.	.
16Cn/JJ	.	.	.	.	.	.	.	.	.	.	.	.	.	.
8BB/L	.	4r	.	4r	.	4r	.	4r	.	4r	.	4r	4r	4r
8AA/J	.	.	.	.	.	.	.	.	.	.	.	.	.	.
!	!	!	!	!	!	!	!	!	!	!	!	!	!	!LO:LB:g=original
=47	=47	=47	=47	=47	=47	=47	=47	=47	=47	=47	=47	=47	=47	=47
!LO:TX:a:rj:i:t=Solo.	!	!	!	!	!	!	!	!	!	!	!	!	!	!LO:TX:a:i:t=ſolo.
8GG/L	.	00r	.	00r	.	00r	.	00r	.	00r	.	00r	00r	8dd\L
8GG/	.	.	.	.	.	.	.	.	.	.	.	.	.	16b\L
.	.	.	.	.	.	.	.	.	.	.	.	.	.	16ccn\JJ
8GG/	.	.	.	.	.	.	.	.	.	.	.	.	.	8dd\L
8GG/J	.	.	.	.	.	.	.	.	.	.	.	.	.	8dd\J
8GG/L	.	.	.	.	.	.	.	.	.	.	.	.	.	4dd\
8GG/	.	.	.	.	.	.	.	.	.	.	.	.	.	.
8GG/	.	.	.	.	.	.	.	.	.	.	.	.	.	4bb\
8GG/J	.	.	.	.	.	.	.	.	.	.	.	.	.	.
=48	=48	=48	=48	=48	=48	=48	=48	=48	=48	=48	=48	=48	=48	=48
8GG/L	.	.	.	.	.	.	.	.	.	.	.	.	.	16bb\LL
.	.	.	.	.	.	.	.	.	.	.	.	.	.	16aa\
8GG/	.	.	.	.	.	.	.	.	.	.	.	.	.	16gg\
.	.	.	.	.	.	.	.	.	.	.	.	.	.	16ff#\JJ
8GG/	.	.	.	.	.	.	.	.	.	.	.	.	.	16ee\LL
.	.	.	.	.	.	.	.	.	.	.	.	.	.	16dd\
8GG/J	.	.	.	.	.	.	.	.	.	.	.	.	.	16cc\
.	.	.	.	.	.	.	.	.	.	.	.	.	.	16b\JJ
8D\L	.	.	.	.	.	.	.	.	.	.	.	.	.	8cc\L
8D\	.	.	.	.	.	.	.	.	.	.	.	.	.	16a\L
.	.	.	.	.	.	.	.	.	.	.	.	.	.	16b\JJ
8D\	.	.	.	.	.	.	.	.	.	.	.	.	.	8cc\L
8D\J	.	.	.	.	.	.	.	.	.	.	.	.	.	8cc\J
!LO:LB:g=original	!	!	!	!	!	!	!	!	!	!	!	!	!	!
=49	=49	=49	=49	=49	=49	=49	=49	=49	=49	=49	=49	=49	=49	=49
8D\L	.	.	.	.	.	.	.	.	.	.	.	.	.	4cc\
8D\	.	.	.	.	.	.	.	.	.	.	.	.	.	.
8D\	.	.	.	.	.	.	.	.	.	.	.	.	.	4aa\
8D\J	.	.	.	.	.	.	.	.	.	.	.	.	.	.
8D\L	.	.	.	.	.	.	.	.	.	.	.	.	.	16aa\LL
.	.	.	.	.	.	.	.	.	.	.	.	.	.	16gg\
8D\	.	.	.	.	.	.	.	.	.	.	.	.	.	16ff#\
.	.	.	.	.	.	.	.	.	.	.	.	.	.	16ee\JJ
8D\	.	.	.	.	.	.	.	.	.	.	.	.	.	16dd\LL
.	.	.	.	.	.	.	.	.	.	.	.	.	.	16cc\
8D\J	.	.	.	.	.	.	.	.	.	.	.	.	.	16b\
.	.	.	.	.	.	.	.	.	.	.	.	.	.	16a\JJ
=50	=50	=50	=50	=50	=50	=50	=50	=50	=50	=50	=50	=50	=50	=50
!	!	!	!	!LO:TX:b:t=Vertate cito.	!	!	!	!	!	!	!	!	!	!
4GG/	.	.	.	.	.	.	.	.	.	.	.	.	.	8b\
.	.	.	.	.	.	.	.	.	.	.	.	.	.	4gg\
8r	.	.	.	.	.	.	.	.	.	.	.	.	.	.
8C#X/	.	.	.	.	.	.	.	.	.	.	.	.	.	8b\
8D/L	.	.	.	.	.	.	.	.	.	.	.	.	.	8bt\L
8D/J	.	.	.	.	.	.	.	.	.	.	.	.	.	8a\J
4D/	.	.	.	.	.	.	.	.	.	.	.	.	.	4r
!	!	!	!	!LO:PB:g=original	!	!	!	!	!	!	!	!	!	!
=51	=51	=51	=51	=51	=51	=51	=51	=51	=51	=51	=51	=51	=51	=51
!LO:TX:a:rj:i:t=Tutti	!	!	!	!	!	!	!	!	!	!	!	!	!	!
8G\L	.	(16b\LL	.	(16gg\LL	.	2G\	Chris-	2B\	Chriſ-	2gg\	Chris-	[>1g/	1b\	(16gg\LL
.	.	16a\	.	16ee\	.	.	.	.	.	.	.	.	.	16ff#\
8G\	.	16b\	.	16gg\	.	.	.	.	.	.	.	.	.	16gg\
.	.	16cc\JJ)	.	16aa\JJ)	.	.	.	.	.	.	.	.	.	16aa\JJ)
8G\	.	4b\	.	4gg\	.	.	.	.	.	.	.	.	.	4gg\
8G\J	.	.	.	.	.	.	.	.	.	.	.	.	.	.
8F#\L	.	(16b\LL	.	(16gg\LL	.	2F#\	-te	2B\	-te	2gg\	-te	.	.	(16gg\LL
.	.	16a\	.	16ee\	.	.	.	.	.	.	.	.	.	16ff#\
8F#\	.	16b\	.	16gg\	.	.	.	.	.	.	.	.	.	16gg\
.	.	16cc\JJ)	.	16aa\JJ)	.	.	.	.	.	.	.	.	.	16aa\JJ)
8F#\	.	4b\	.	4gg\	.	.	.	.	.	.	.	.	.	4gg\
8F#\J	.	.	.	.	.	.	.	.	.	.	.	.	.	.
=52	=52	=52	=52	=52	=52	=52	=52	=52	=52	=52	=52	=52	=52	=52
*	*	*	*	*	*	*	*	*	*ij	*	*ij	*	*	*
8E\L	.	(16b\LL	.	(16gg\LL	.	2E\	Chris-	2B\	Chriſ-	2gg\	Chris-	1g/]	1b\	(16gg\LL
.	.	16a\	.	16ee\	.	.	.	.	.	.	.	.	.	16ff#\
8E\	.	16b\	.	16gg\	.	.	.	.	.	.	.	.	.	16gg\
.	.	16cc\JJ)	.	16aa\JJ)	.	.	.	.	.	.	.	.	.	16aa\JJ)
8E\	.	4b\	.	4gg\	.	.	.	.	.	.	.	.	.	4gg\
8E\J	.	.	.	.	.	.	.	.	.	.	.	.	.	.
8BB/L	.	(16b\LL	.	(16gg\LL	.	4BB/	.	2B\	-te	2gg\	-te	.	.	(16gg\LL
*	*	*	*	*	*	*	*	*	*Xij	*	*Xij	*	*	*
.	.	16a\	.	16ee\	.	.	.	.	.	.	.	.	.	16ff#\
8BB/	.	16b\	.	16gg\	.	.	.	.	.	.	.	.	.	16gg\
.	.	16cc\JJ)	.	16aa\JJ)	.	.	.	.	.	.	.	.	.	16aa\JJ)
8GG/	.	4b\	.	4gg\	.	4GG/	-te	.	.	.	.	.	.	4gg\
8GG/J	.	.	.	.	.	.	.	.	.	.	.	.	.	.
=53	=53	=53	=53	=53	=53	=53	=53	=53	=53	=53	=53	=53	=53	=53
8C/L	.	2cc\	.	2aa\	.	4C/	au-	2c\	au-	2aa\	au-	2a\	2cc\	2aa\
8C/	.	.	.	.	.	.	.	.	.	.	.	.	.	.
8AA/	.	.	.	.	.	4AA/	.	.	.	.	.	.	.	.
8AA/J	.	.	.	.	.	.	.	.	.	.	.	.	.	.
.	.	8qqb/	.	8qqgg/	.	.	.	8qqB/	.	8qqgg/	.	.	.	8qqgg/
8D/L	.	2a\	.	2ff#\	.	4D/	.	2A\	-di	2ff#\	-di	2d/	2a\	2ff#\
8D/	.	.	.	.	.	.	.	.	.	.	.	.	.	.
8D/	.	.	.	.	.	4D/	-di	.	.	.	.	.	.	.
8D/J	.	.	.	.	.	.	.	.	.	.	.	.	.	.
!	!	!LO:LB:g=original	!	!	!	!	!	!	!	!	!	!	!LO:LB:g=original	!LO:LB:g=original
=54	=54	=54	=54	=54	=54	=54	=54	=54	=54	=54	=54	=54	=54	=54
4GG/	.	8b\L	.	16gg\LL	.	4GG/	nos	4B\	nos	4gg\	nos	4g\	4b\	4gg\
.	.	.	.	16gg\	.	.	.	.	.	.	.	.	.	.
.	.	16dd\L	.	16dd\	.	.	.	.	.	.	.	.	.	.
.	.	16dd\JJ	.	16dd\JJ	.	.	.	.	.	.	.	.	.	.
8r	.	16b/LL	.	16b/LL	.	4r	.	4r	.	4r	.	8r	8r	4r
.	.	16b/	.	16b/	.	.	.	.	.	.	.	.	.	.
8G\	.	16g/	.	16g/	.	.	.	.	.	.	.	8g\	8g\	.
.	.	16g/JJ	.	16g/JJ	.	.	.	.	.	.	.	.	.	.
8D/L	.	16d/LL	.	16d/LL	.	2r	.	2r	.	2r	.	8d/L	8d/L	2r
.	.	16d/	.	16d/	.	.	.	.	.	.	.	.	.	.
8BB/J	.	16B/	.	16B/	.	.	.	.	.	.	.	8B/J	8c/J	.
.	.	16B/JJ	.	16B/JJ	.	.	.	.	.	.	.	.	.	.
4GG/	.	4G/	.	4G/	.	.	.	.	.	.	.	4G/	4G/	.
!	!	!	!	!	!	!	!	!LO:LB:g=original	!	!	!	!LO:LB:g=original	!	!
=55	=55	=55	=55	=55	=55	=55	=55	=55	=55	=55	=55	=55	=55	=55
8G\L	.	(16g/LL	.	(16b\LL	.	2G\	Chris-	2G/	Chriſ-	2b\	Chris-	[>1g/	1b\	(16b\LL
.	.	16f#/	.	16a\	.	.	.	.	.	.	.	.	.	16a\
8G\	.	16g/	.	16b\	.	.	.	.	.	.	.	.	.	16b\
.	.	16a/JJ)	.	16cc\JJ)	.	.	.	.	.	.	.	.	.	16cc\JJ)
8G\	.	4g/	.	4b\	.	.	.	.	.	.	.	.	.	4b\
8G\J	.	.	.	.	.	.	.	.	.	.	.	.	.	.
8F#\L	.	(16g/LL	.	(16b\LL	.	2F#\	-te	2G/	-te	2b\	-te	.	.	(16b\LL
.	.	16f#/	.	16a\	.	.	.	.	.	.	.	.	.	16a\
8F#\	.	16g/	.	16b\	.	.	.	.	.	.	.	.	.	16b\
.	.	16a/JJ)	.	16cc\JJ)	.	.	.	.	.	.	.	.	.	16cc\JJ)
8F#\	.	4g/	.	4b\	.	.	.	.	.	.	.	.	.	4b\
8F#\J	.	.	.	.	.	.	.	.	.	.	.	.	.	.
=56	=56	=56	=56	=56	=56	=56	=56	=56	=56	=56	=56	=56	=56	=56
*	*	*	*	*	*	*	*	*	*ij	*	*iji	*	*	*
8E\L	.	(16g/LL	.	(16b\LL	.	2E\	Chris-	2G/	Chriſ-	2b\	Chris-	1g/]	1b\	(16b\LL
.	.	16f#/	.	16a\	.	.	.	.	.	.	.	.	.	16a\
8E\	.	16g/	.	16b\	.	.	.	.	.	.	.	.	.	16b\
.	.	16a/JJ)	.	16cc\JJ)	.	.	.	.	.	.	.	.	.	16cc\JJ)
8E\	.	4g/	.	4b\	.	.	.	.	.	.	.	.	.	4b\
8E\J	.	.	.	.	.	.	.	.	.	.	.	.	.	.
8BB/L	.	(16g/LL	.	(16b\LL	.	4BB/	-te	4G/	-te	4b\	-te	.	.	(16b\LL
*	*	*	*	*	*	*	*	*	*Xij	*	*Xij	*	*	*
.	.	16f#/	.	16a\	.	.	.	.	.	.	.	.	.	16a\
8BB/	.	16g/	.	16b\	.	.	.	.	.	.	.	.	.	16b\
.	.	16a/JJ)	.	16cc\JJ)	.	.	.	.	.	.	.	.	.	16cc\JJ)
8GG/	.	4g/	.	4b\	.	4GG/	e-	4G/	e-	4b\	e-	.	.	4b\
8GG/J	.	.	.	.	.	.	.	.	.	.	.	.	.	.
!LO:LB:g=original	!	!	!	!	!	!	!	!	!	!	!	!	!	!
=57	=57	=57	=57	=57	=57	=57	=57	=57	=57	=57	=57	=57	=57	=57
8C/L	.	2a/	.	2cc\	.	4C/	-xau-	2A/	-xau-	2cc\	-xau-	2a\	2cc\	2cc\
8C/	.	.	.	.	.	.	.	.	.	.	.	.	.	.
8AA/	.	.	.	.	.	4AA/	.	.	.	.	.	.	.	.
8AA/J	.	.	.	.	.	.	.	.	.	.	.	.	.	.
.	.	8qqg/	.	8qqb/	.	.	.	8qqG/	.	8qqb/	.	.	8qqb/	8qqb/
8D/L	.	2f#/	.	2a\	.	4D/	.	2F#/	-di	2a\	-di	2d/	2a\	2a\
8D/	.	.	.	.	.	.	.	.	.	.	.	.	.	.
8D/	.	.	.	.	.	4D/	-di	.	.	.	.	.	.	.
8D/J	.	.	.	.	.	.	.	.	.	.	.	.	.	.
!	!	!	!	!LO:LB:g=original	!	!	!	!	!	!	!	!	!	!
=58	=58	=58	=58	=58	=58	=58	=58	=58	=58	=58	=58	=58	=58	=58
4GG/	.	16gg\LL	.	16bb\LL	.	4GG/	nos	4G/	nos	4b\	nos	4g\	4b\	8bb\L
.	.	16gg\	.	16bb\	.	.	.	.	.	.	.	.	.	.
.	.	16ee\	.	16gg\	.	.	.	.	.	.	.	.	.	8gg\
.	.	16ee\JJ	.	16gg\JJ	.	.	.	.	.	.	.	.	.	.
4r	.	16b/LL	.	16dd\LL	.	4r	.	4r	.	4r	.	4r	4r	8dd\
.	.	16b/	.	16dd\	.	.	.	.	.	.	.	.	.	.
.	.	16g/	.	16b\	.	.	.	.	.	.	.	.	.	8b\J
.	.	16g/JJ	.	16b\JJ	.	.	.	.	.	.	.	.	.	.
!	!	!	!	!	!	!LO:LB:g=original	!	!	!	!LO:LB:g=original	!	!	!	!
!	!	!LO:TX:t=P:problem=mixed beam	!	!	!	!	!	!	!	!	!	!	!	!
8r	.	8d/L	.	8g\L	.	8G\	Chris-	8B\	Chriſ-	8dd\	Chris-	8g\L	8b\L	8g\L
8GG/L	.	8b\J	.	8dd\J	.	8G\	te	8B\	-te	8dd\	-te	8b\J	8dd\J	8dd\J
8BB/	.	4bt\	.	4ddT\	.	8G\	au-	8B\	au-	8dd\	au-	4b\	4dd\	4ddT\
8GG/J	.	.	.	.	.	8G\	-di	8B\	-di	8dd\	-di	.	.	.
=59	=59	=59	=59	=59	=59	=59	=59	=59	=59	=59	=59	=59	=59	=59
4D\	.	16ff#\LL	.	16aa\LL	.	4d\	nos	4A\	nos	4cc\	nos	4a\	4cc\	8aa\L
.	.	16ff#\	.	16aa\	.	.	.	.	.	.	.	.	.	.
.	.	16cc\	.	16ff#\	.	.	.	.	.	.	.	.	.	8ff#\
.	.	16cc\JJ	.	16ff#\JJ	.	.	.	.	.	.	.	.	.	.
4r	.	16a/LL	.	16cc\LL	.	4r	.	4r	.	4r	.	4r	4r	8cc\
.	.	16a/	.	16cc\	.	.	.	.	.	.	.	.	.	.
.	.	16f#/	.	16a\	.	.	.	.	.	.	.	.	.	8a\J
.	.	16f#/JJ	.	16a\JJ	.	.	.	.	.	.	.	.	.	.
!	!	!	!	!LO:TX:t=P:problem=mixed beam	!	!	!	!	!	!	!	!	!	!
8r	.	8d/L	.	8f#/L	.	8D\	Chris-	8A\	Chriſ-	8cc\	Chris-	8d\L	8a\L	8f#/L
8D\L	.	8a/J	.	8cc\J	.	8D\	-te	8A\	-te	8cc\	-te	8a\J	8cc\J	8cc/J
!	!	!	!	!	!	!	!	!LO:TX:t=P:problem=tekst powinien zaczynać się od  "audi"	!	!	!	!	!	!
8F#\	.	4aT/	.	4ccT\	.	8D\	au-	8A\	e-	8cc\	au-	4a\	4cc\	4ccT/
8D\J	.	.	.	.	.	8D\	-di	8A\	-xau-	8cc\	-di	.	.	.
=60	=60	=60	=60	=60	=60	=60	=60	=60	=60	=60	=60	=60	=60	=60
8G\L	.	8g/L	.	8b\L	.	8G\	nos	8G/	-di	8b\	nos	8g\L	8b\L	8b\L
8B\	.	8b/	.	8gg\	.	8B\	e-	8G/	nos	8b\	e-	8g\	8b\	8gg\
8d\	.	8f#/	.	8a\	.	8d\	-xau-	8F#/	e-	8a\	-xau-	8d\	8a\	8a\
8D\J	.	8a/J	.	8ff#\J	.	8D\	-di	8F#/	-xaudi	8a\	-di	8d\J	8a\J	8ff#\J
!	!	!	!	!	!	!	!	!LO:LB:g=original	!	!	!	!	!	!
4A\	.	4b/	.	4gg\	.	4G\	nos.	4G/	nos	4b\	nos.	4g\	4b\	4gg\
4d\	.	4ff#/ 4a/ 4d/	.	4ff#/ 4a/ 4d/	.	4r	.	4r	.	4r	.	4d/	4a\	4ff#\
=61	=61	=61	=61	=61	=61	=61	=61	=61	=61	=61	=61	=61	=61	=61
4G\	.	4gg/ 4b/ 4d/ 4G/	.	4gg/ 4b/ 4d/ 4G/	.	1r	.	1r	.	1r	.	4g\	4b\	4gg\
4D/	.	4ff#/ 4a/ 4d/	.	4ff#/ 4a/ 4d/	.	.	.	.	.	.	.	4d/	4a\	4ff#\
4GG/	.	4gg/ 4b/ 4d/ 4G/	.	4gg/ 4b/ 4d/ 4G/	.	.	.	.	.	.	.	4g\	4b\	4gg\
!LO:TX:b:t=Vertatur	!	!	!	!	!	!	!	!	!	!	!	!	!	!
4r	.	4r	.	4r	.	.	.	.	.	.	.	4r	4r	4r
==	==	==	==	==	==	==	==	==	==	==	==	==	==	==
*-	*-	*-	*-	*-	*-	*-	*-	*-	*-	*-	*-	*-	*-	*-
!!!system-decoration: [(s1)][(s2,s3)][(s4,s5,s6)][(s7,s8)]s9
!!!RDF**dynam: p = pia.
!!!RDF**dynam: f = for.
!!!RDF**kern: > = above
!!!RDF**kern: < = below
!!!ENC: Tomasz Grochalski
!!!END: 2020-12-03
!!!ENC: Leszek Kubiak
!!!END: 2022-03-07
!!!YEC: Copyright 2022 Narodowy Instytut Fryderyka Chopina (https://polishscores.org)
!!!YEM: License CC-BY-4.0 (https://creativecommons.org/licenses/by/4.0)
